X:1
T:Title
%%score { ( 1 4 ) | ( 2 3 ) }
L:1/8
Q:1/4=100
M:4/4
K:Ab
V:1 treble nm="Grand Piano"
V:4 treble 
V:2 bass 
V:3 bass 
V:1
 [Ec]4 [DG]2 [CA]2 | [A,C]2 [DF]2 [CE]4 | E2 B2 A2 B2 | c6 z2 | [Ec]4 [DG]2 [CA]2 | %5
w: Theo.~F.~Seward * *|||||
 [A,C]2 [DF]2 [CE]4 | =D2 E2 [B,EG]2 [A,DF]2 | [G,E]6 z2 | z2 B2 [A,EA]2 [EB]2 | [Ec]3 [Ed] [Ee]4 | %10
w: |||||
 E2 B2 A2 B2 | [Ec]3 [DB] [CA]4 | c4 e2 c2 | [CA]2 E2 F4 | [CE]2 [Ec]2 [DB]3 [DE] | [CA]6 z2 |] %16
w: ||||||
V:2
 [A,,A,]4 [A,,E,]2 [A,,E,]2 | [A,,E,]2 [A,,A,]2 [A,,A,]4 | [E,G,D]4 [E,A,C]2 [E,G,E]2 | [A,E]6 z2 | %4
 [A,,A,]4 [A,,E,]2 [A,,E,]2 | [A,,E,]2 [A,,A,]2 [A,,A,]4 | [B,,B,]4 z4 | E,6 z2 | %8
 E,2 D,2 C,2 [B,,G,]2 | [A,,A,]3 [B,,G,] [C,A,]4 | z2 D2 [E,A,C]2 [E,G,E]2 | %11
 [A,,A,]3 [A,,A,] [A,,A,]4 | [A,E]4 [A,CE]2 [A,E]2 | [A,,A,]2 [C,A,]2 [D,A,D]4 | %14
 [E,A,]4 [E,G,]3 [E,B,] | [A,,A,]6 z2 |] %16
V:3
 x8 | x8 | x8 | x8 | x8 | x8 | A,2 G,2 B,,2 B,,2 | x8 | x8 | x8 | [E,G,]4 z4 | x8 | x8 | x8 | x8 | %15
 x8 |] %16
V:4
 x8 | x8 | x8 | x8 | x8 | x8 | x8 | x8 | [G,E]4 z4 | x8 | x8 | x8 | x8 | x8 | x8 | x8 |] %16

